usr/share/icons/biglinux-icons-material-dark/16/actions/color-mode-invert-image.svg

<!DOCTYPE svg>
<svg version="1.1" viewBox="0 0 16 16" xmlns="http://www.w3.org/2000/svg">
    <defs>
        <style id="current-color-scheme" type="text/css">
            .ColorScheme-Text {
                color:#dedede;
            }
        </style>
    </defs>
    <path class="ColorScheme-Text" style="fill:currentColor; fill-opacity:1; stroke:none" d="M 8 3 L 13 3 L 13 13 L 8 13 L 8 3 Z M 3 3 L 13 3 L 13 9 L 11 7 L 7.65625 10.3438 L 6.3125 9 L 6.2813 9 L 3 12.2813 L 3 3 Z M 2 2 L 2 13.2813 L 2 14 L 14 14 L 14 13 L 14 12 L 14 11 L 14 10 L 14 2 L 2 2 Z M 6 4 C 4.89543 4 4 4.89543 4 6 C 4 7.10457 4.89543 8 6 8 C 7.10457 8 8 7.10457 8 6 C 8 4.89543 7.10457 4 6 4 Z"/>
</svg>

<svg xmlns="http://www.w3.org/2000/svg" viewBox="0 0 16 16">
<defs>
<style id="current-color-scheme" type="text/css">
.ColorScheme-Text{color:#dedede}
</style>
</defs>
<path d="M8 3h5v10H8zM3 3h10v6l-2-2-3.344 3.344L6.313 9H6.28L3 12.281zM2 2v12h12V2zm4 2a2 2 0 1 0 0 4 2 2 0 0 0 0-4" class="ColorScheme-Text" style="fill:currentColor;fill-opacity:1;stroke:none"/>
</svg>
